systematic/svg/Atari - 7800-content.svg

<?xml version="1.0" encoding="UTF-8" standalone="no"?>
<svg
   xmlns:dc="http://purl.org/dc/elements/1.1/"
   xmlns:cc="http://creativecommons.org/ns#"
   xmlns:rdf="http://www.w3.org/1999/02/22-rdf-syntax-ns#"
   xmlns:svg="http://www.w3.org/2000/svg"
   xmlns="http://www.w3.org/2000/svg"
   viewBox="0 0 320 320"
   height="320"
   width="320"
   xml:space="preserve"
   version="1.1"
   id="svg2"><metadata
     id="metadata8"><rdf:RDF><cc:Work
         rdf:about=""><dc:format>image/svg+xml</dc:format><dc:type
           rdf:resource="http://purl.org/dc/dcmitype/StillImage" /></cc:Work></rdf:RDF></metadata><defs
     id="defs6"><clipPath
       id="clipPath16"
       clipPathUnits="userSpaceOnUse"><path
         id="path18"
         d="M 0,256 256,256 256,0 0,0 0,256 Z" /></clipPath><clipPath
       id="clipPath24"
       clipPathUnits="userSpaceOnUse"><path
         id="path26"
         d="m 23.3333,252 209.3337,0 0,-248 -209.3337,0 0,248 z" /></clipPath></defs><g
     transform="matrix(1.25,0,0,-1.25,0,320)"
     id="g10"><g
       id="g12"><g
         clip-path="url(#clipPath16)"
         id="g14"><g
           id="g20"><g
             id="g22" /><g
             id="g28"><g
               style="opacity:0.5"
               id="g30"
               clip-path="url(#clipPath24)"><g
                 id="g32"
                 transform="translate(219.8333,252)"><path
                   id="path34"
                   style="fill:#ffffff;fill-opacity:1;fill-rule:nonzero;stroke:none"
                   d="m 0,0 -183.667,0 c -7.076,0 -12.833,-5.757 -12.833,-12.833 l 0,-227.167 0,-8 8,0 193.333,0 8,0 0,8 0,227.167 C 12.833,-5.757 7.076,0 0,0" /></g></g></g></g><g
           transform="translate(219.8333,244)"
           id="g36"><path
             id="path38"
             style="fill:#191919;fill-opacity:1;fill-rule:nonzero;stroke:none"
             d="m 0,0 -183.667,0 c -2.668,0 -4.833,-2.16 -4.833,-4.833 l 0,-227.167 193.333,0 0,227.167 C 4.833,-2.16 2.673,0 0,0" /></g><g
           transform="translate(212,24)"
           id="g40"><path
             id="path42"
             style="fill:#0d0d0d;fill-opacity:1;fill-rule:nonzero;stroke:none"
             d="m 0,0 -168,0 0,203.048 c 0,2.738 2.214,4.952 4.941,4.952 l 158.118,0 C -2.209,208 0,205.786 0,203.048 L 0,0 Z" /></g><g
           transform="translate(208,28)"
           id="g44"><path
             id="path46"
             style="fill:#999999;fill-opacity:1;fill-rule:nonzero;stroke:none"
             d="m 0,0 -160,0 0,194.737 c 0,2.91 2.384,5.263 5.333,5.263 l 149.334,0 C -2.384,200 0,197.647 0,194.737 L 0,0 Z" /></g><g
           transform="translate(70,176)"
           id="g48"><path
             id="path50"
             style="fill:#000000;fill-opacity:1;fill-rule:nonzero;stroke:none"
             d="m 0,0 116,0 0,-108.75 c 0,-4.004 -3.246,-7.25 -7.25,-7.25 l -101.5,0 C 3.246,-116 0,-112.754 0,-108.75 L 0,0 Z" /></g><path
           id="path52"
           style="fill:#ffff00;fill-opacity:1;fill-rule:nonzero;stroke:none"
           d="m 70,178 29,0 0,-4 -29,0 0,4 z" /><path
           id="path54"
           style="fill:#ff0000;fill-opacity:1;fill-rule:nonzero;stroke:none"
           d="m 99,178 29,0 0,-4 -29,0 0,4 z" /><path
           id="path56"
           style="fill:#0000b8;fill-opacity:1;fill-rule:nonzero;stroke:none"
           d="m 128,178 29,0 0,-4 -29,0 0,4 z" /><path
           id="path58"
           style="fill:#00b800;fill-opacity:1;fill-rule:nonzero;stroke:none"
           d="m 157,178 29,0 0,-4 -29,0 0,4 z" /><g
           transform="translate(204,180)"
           id="g60"><path
             id="path62"
             style="fill:#ffff00;fill-opacity:1;fill-rule:nonzero;stroke:none"
             d="M 0,0 -44,44 0,44 0,0 Z" /></g></g></g></g></svg>

<?xml version="1.0" encoding="UTF-8" standalone="no"?>
<svg
   xmlns:dc="http://purl.org/dc/elements/1.1/"
   xmlns:cc="http://creativecommons.org/ns#"
   xmlns:rdf="http://www.w3.org/1999/02/22-rdf-syntax-ns#"
   xmlns:svg="http://www.w3.org/2000/svg"
   xmlns="http://www.w3.org/2000/svg"
   viewBox="0 0 279.11065 330.66665"
   height="330.66666"
   width="279.11066"
   xml:space="preserve"
   id="svg2"
   version="1.1"><metadata
     id="metadata8"><rdf:RDF><cc:Work
         rdf:about=""><dc:format>image/svg+xml</dc:format><dc:type
           rdf:resource="http://purl.org/dc/dcmitype/StillImage" /></cc:Work></rdf:RDF></metadata><defs
     id="defs6"><clipPath
       id="clipPath18"
       clipPathUnits="userSpaceOnUse"><path
         id="path16"
         d="M 0,256 H 256 V 0 H 0 Z" /></clipPath><clipPath
       id="clipPath26"
       clipPathUnits="userSpaceOnUse"><path
         id="path24"
         d="M 23.3333,252 H 232.667 V 4 H 23.3333 Z" /></clipPath></defs><g
     transform="matrix(1.3333333,0,0,-1.3333333,-31.111066,335.99999)"
     id="g10"><g
       id="g12"><g
         clip-path="url(#clipPath18)"
         id="g14"><g
           id="g20"><g
             id="g22" /><g
             id="g34"><g
               style="opacity:0.5"
               id="g32"
               clip-path="url(#clipPath26)"><g
                 id="g30"
                 transform="translate(219.8333,252)"><path
                   id="path28"
                   style="fill:#ffffff;fill-opacity:1;fill-rule:nonzero;stroke:none"
                   d="M 0,0 H -183.667 C -190.743,0 -196.5,-5.757 -196.5,-12.833 V -240 v -8 h 8 193.333 8 v 8 227.167 C 12.833,-5.757 7.076,0 0,0" /></g></g></g></g><g
           transform="translate(219.8333,244)"
           id="g36"><path
             id="path38"
             style="fill:#191919;fill-opacity:1;fill-rule:nonzero;stroke:none"
             d="m 0,0 h -183.667 c -2.668,0 -4.833,-2.16 -4.833,-4.833 V -232 H 4.833 V -4.833 C 4.833,-2.16 2.673,0 0,0" /></g><g
           transform="translate(212,24)"
           id="g40"><path
             id="path42"
             style="fill:#0d0d0d;fill-opacity:1;fill-rule:nonzero;stroke:none"
             d="m 0,0 h -168 v 203.048 c 0,2.738 2.214,4.952 4.941,4.952 H -4.941 C -2.209,208 0,205.786 0,203.048 Z" /></g><g
           transform="translate(208,28)"
           id="g44"><path
             id="path46"
             style="fill:#999999;fill-opacity:1;fill-rule:nonzero;stroke:none"
             d="m 0,0 h -160 v 194.737 c 0,2.91 2.384,5.263 5.333,5.263 H -5.333 C -2.384,200 0,197.647 0,194.737 Z" /></g><g
           transform="translate(70,176)"
           id="g48"><path
             id="path50"
             style="fill:#000000;fill-opacity:1;fill-rule:nonzero;stroke:none"
             d="m 0,0 h 116 v -108.75 c 0,-4.004 -3.246,-7.25 -7.25,-7.25 H 7.25 c -4.004,0 -7.25,3.246 -7.25,7.25 z" /></g><path
           id="path52"
           style="fill:#ffff00;fill-opacity:1;fill-rule:nonzero;stroke:none"
           d="m 70,178 h 29 v -4 H 70 Z" /><path
           id="path54"
           style="fill:#ff0000;fill-opacity:1;fill-rule:nonzero;stroke:none"
           d="m 99,178 h 29 v -4 H 99 Z" /><path
           id="path56"
           style="fill:#0000b8;fill-opacity:1;fill-rule:nonzero;stroke:none"
           d="m 128,178 h 29 v -4 h -29 z" /><path
           id="path58"
           style="fill:#00b800;fill-opacity:1;fill-rule:nonzero;stroke:none"
           d="m 157,178 h 29 v -4 h -29 z" /><g
           transform="translate(204,180)"
           id="g60"><path
             id="path62"
             style="fill:#ffff00;fill-opacity:1;fill-rule:nonzero;stroke:none"
             d="M 0,0 -44,44 H 0 Z" /></g></g></g></g></svg>
